X:1
T:Title
T:Amazing Grace 
T: Violino 1
C:Composer
L:1/8
M:3/4
K:G
V:1 treble nm="Piano" snm="Pno."
V:1
 G4 B2 | d4 ^d2 | e4 ge | g4 (3ege | d2 B2 G2 | B4 A2 | G4 dB | d2 c2 BA | c2 B4 | B2 A4 | %10
 G2- GD EG | B4 D2 || G4 (3BAG | B4 A2 | G4 E2 | D4 D2 | G4 (3BAG | B4 A2 | d6- | d4 B2 | d3 B dB | %21
 G4 D2 | E3 G GE | D4 D2 | G4 (3BAG | B4 A2 | G6 | d6 |] %28

